X:18390
T:Walsh's Polka
R:polka
Z:id:hn-polka-60
M:2/4
L:1/8
K:A
Ac ef|ec c/d/c/B/|Ac ef|e2 ea|Ac ef|ec c/d/c/B/|AF FE|1 A2 AB:|2 A2 Ac/e/||
|:fe c/d/c/B/|AF FE|A>B Ac|e2 ec/e/|
fe c/d/c/B/|AF FE|A>B AF|1 A2 Ac/e/:|2 A2 AB||


